public/img/icons/zeit.svg

<svg height="46" viewBox="0 0 233 46" width="233" xmlns="http://www.w3.org/2000/svg" xmlns:xlink="http://www.w3.org/1999/xlink"><linearGradient id="a" x1="114.720775%" x2="39.539931%" y1="187.87784%" y2="102.51159%"><stop offset="0" stop-color="#fff"/><stop offset="1"/></linearGradient><g fill="none"><path d="m25.3 0 25.3 46h-50.6z" fill="url(#a)"/><path d="m87.4 33.12h20.729512v-3.5902837h-15.5598049l15.3063879-21.794539v-3.1351773h-20.222678v3.59028369h15.052971l-15.306388 21.79453901zm42.422008 0h18.600809v-3.5902837h-14.394087v-9.152695h12.518801v-3.5902837h-12.518801v-8.59645391h14.394087v-3.59028369h-18.600809zm41.002873 0h18.144659v-3.5902837h-6.943626v-21.33943261h6.943626v-3.59028369h-18.144659v3.59028369h6.994309v21.33943261h-6.994309zm47.997182 0h4.206724v-24.92971631h9.731213v-3.59028369h-23.567783v3.59028369h9.629846z" fill="#333"/></g></svg>

<?xml version="1.0" encoding="UTF-8"?>
<svg width="233px" height="46px" viewBox="0 0 233 46" version="1.1" xmlns="http://www.w3.org/2000/svg" xmlns:xlink="http://www.w3.org/1999/xlink">
    <!-- Generator: Sketch 55.2 (78181) - https://sketchapp.com -->
    <title>zeit</title>
    <desc>Created with Sketch.</desc>
    <defs>
        <linearGradient x1="114.720775%" y1="187.87784%" x2="39.539931%" y2="102.51159%" id="linearGradient-1">
            <stop stop-color="#FFFFFF" offset="0%"></stop>
            <stop stop-color="#000000" offset="100%"></stop>
        </linearGradient>
    </defs>
    <g id="WINNERS" stroke="none" stroke-width="1" fill="none" fill-rule="evenodd">
        <g id="Artboard" transform="translate(-100.000000, -2690.000000)" fill-rule="nonzero">
            <g id="zeit" transform="translate(100.000000, 2690.000000)">
                <polygon id="Path" fill="url(#linearGradient-1)" points="25.3 0 50.6 46 0 46"></polygon>
                <path d="M87.4,33.12 L108.129512,33.12 L108.129512,29.5297163 L92.5697071,29.5297163 L107.876095,7.7351773 L107.876095,4.6 L87.653417,4.6 L87.653417,8.19028369 L102.706388,8.19028369 L87.4,29.9848227 L87.4,33.12 Z M129.822008,33.12 L148.422817,33.12 L148.422817,29.5297163 L134.02873,29.5297163 L134.02873,20.3770213 L146.547531,20.3770213 L146.547531,16.7867376 L134.02873,16.7867376 L134.02873,8.19028369 L148.422817,8.19028369 L148.422817,4.6 L129.822008,4.6 L129.822008,33.12 Z M170.824881,33.12 L188.96954,33.12 L188.96954,29.5297163 L182.025914,29.5297163 L182.025914,8.19028369 L188.96954,8.19028369 L188.96954,4.6 L170.824881,4.6 L170.824881,8.19028369 L177.81919,8.19028369 L177.81919,29.5297163 L170.824881,29.5297163 L170.824881,33.12 Z M218.822063,33.12 L223.028787,33.12 L223.028787,8.19028369 L232.76,8.19028369 L232.76,4.6 L209.192217,4.6 L209.192217,8.19028369 L218.822063,8.19028369 L218.822063,33.12 Z" id="Shape" fill="#333333"></path>
            </g>
        </g>
    </g>
</svg>
